X:621
T:Vals efter J J Bruun -Andrastämma
C:Johan Jacob Bruun
R:Vals
Z:Patrik Månsson, 2008-10-06
O:Skåne
M:3/4
L:1/8
K:G
|: [DG,]4 [DG,]2 | d2 dB cA | B2 BG EF | G^F GA GF |
DG, B,D EF | GE GE CA, | [DB,]2 [EC]2 [DA,] | [EB,]4 z2 :|
|: ^D2 B,2 D2 | E2 B,2 FG | A2 D2 c2 | B2 Bc dc |
B2 G2 EF | GE GE CA, | [DB,]2 [EC]2 [DA,]2 | [EB,]4 z2 :|

(:musicend:)

Klicka här för fler låtar med [[!andrastämma]].
(:music:)
